src/assets/logos/xprize.svg

<svg height="77" viewBox="0 0 286 77" width="286" xmlns="http://www.w3.org/2000/svg"><path d="m97.4603172 19.0193188v-.0019319c21.9626808.0656839 21.9626808 34.2213263 0 34.2213263h-8.4553428v11.7535593h-11.7333548v-45.9729537zm-.0655602 23.6442821v-.0193188c6.424904 0 6.820193-13.0730335 0-13.1367856-2.7516019-.0656839-5.7018127 0-8.3878543 0v13.1561044zm50.67421-23.646214.003856-.0038637c18.029066.0656839 21.307078 21.8070639 9.702916 29.6891352l10.042286 16.2780228-14.172582.0077275-7.867228-13.5270253h-6.097103v13.5270253h-11.735283v-45.9710218zm.003856 22.000252v-.015455c6.357415 0 6.685216-11.4328672 0-11.4985511-2.755458-.0637521-5.634324 0-8.391711 0v11.5140061zm31.546045 23.9533829v-45.9710218h13.100479v45.9710218zm29.22637-45.9632943 35.732259-.0038637-19.810762 35.4693209h19.01247v10.5094284h-37.620009l19.72592-35.4693209h-17.039878zm59.584617 35.5311411 17.570145.0077275v10.4437445h-29.237939v-45.9787493h28.647897v10.5094284h-16.980103v6.5027088h15.603338v10.4476083h-15.603338zm-222.6040121 10.4534039v.0077275l-16.8258429-21.2506825c2.7516019-3.6164797 5.568764-7.1479568 8.4071367-10.5017009l25.1307829 31.7446559zm26.7909369-60.40385733.0173604-.0019393c.6751281 2.42994304.3472087 5.54058043-.4243662 8.57170653-1.54315 6.1980031-4.9187906 12.0915362-5.3238674 11.302241 2.6619337-5.6627563 3.9543218-11.1315826 3.2406149-14.60292982-.6944175-3.46359001-3.3659959-4.94909389-8.6319952-2.68011276-13.294237 5.72481398-29.8483783 25.99631798-43.24292 45.28653628-6.1552395 8.8567836-11.64306655 17.51188-15.84236341 24.4545744-2.47096889 1.5475615 7.5325008-19.2087676 21.44013991-39.5423293l-23.8493828-30.22593158h16.7238878l15.1421591 19.19325318c11.1222534-14.3275492 23.5176056-26.15534059 33.7564056-26.3415134 4.1780786-.0717541 6.230468 1.82294211 6.9943273 4.58644477z"/></svg>

<svg xmlns="http://www.w3.org/2000/svg" width="286" height="77" viewBox="0 0 286 77">
  <path d="M97.4603172,19.0193188 L97.4603172,19.0173869 C119.422998,19.0830708 119.422998,53.2387132 97.4603172,53.2387132 L89.0049744,53.2387132 L89.0049744,64.9922725 L77.2716196,64.9922725 L77.2716196,19.0193188 L97.4603172,19.0193188 Z M97.394757,42.6636009 L97.394757,42.6442821 C103.819661,42.6442821 104.21495,29.5712486 97.394757,29.5074965 C94.6431551,29.4418126 91.6929443,29.5074965 89.0069027,29.5074965 L89.0069027,42.6636009 L97.394757,42.6636009 Z M148.068967,19.0173869 L148.072823,19.0135232 C166.101889,19.0792071 169.379901,40.8205871 157.775739,48.7026584 L167.818025,64.9806812 L153.645443,64.9884087 L145.778215,51.4613834 L139.681112,51.4613834 L139.681112,64.9884087 L127.945829,64.9884087 L127.945829,19.0173869 L148.068967,19.0173869 Z M148.072823,41.0176389 L148.072823,41.0021839 C154.430238,41.0021839 154.758039,29.5693167 148.072823,29.5036328 C145.317365,29.4398807 142.438499,29.5036328 139.681112,29.5036328 L139.681112,41.0176389 L148.072823,41.0176389 Z M179.618868,64.9710218 L179.618868,19 L192.719347,19 L192.719347,64.9710218 L179.618868,64.9710218 Z M208.845238,19.0077275 L244.577497,19.0038638 L224.766735,54.4731847 L243.779205,54.4731847 L243.779205,64.9826131 L206.159196,64.9826131 L225.885116,29.5132922 L208.845238,29.5132922 L208.845238,19.0077275 Z M268.429855,54.5388686 L286,54.5465961 L286,64.9903406 L256.762061,64.9903406 L256.762061,19.0115913 L285.409958,19.0115913 L285.409958,29.5210197 L268.429855,29.5210197 L268.429855,36.0237285 L284.033193,36.0237285 L284.033193,46.4713368 L268.429855,46.4713368 L268.429855,54.5388686 Z M45.8258429,64.9922725 L45.8258429,65 L29,43.7493175 C31.7516019,40.1328378 34.568764,36.6013607 37.4071367,33.2476166 L62.5379196,64.9922725 L45.8258429,64.9922725 Z M72.6167798,4.58841517 L72.6341402,4.58647587 C73.3092683,7.01641891 72.9813489,10.1270563 72.209774,13.1581824 C70.666624,19.3561855 67.2909834,25.2497186 66.8859066,24.4604234 C69.5478403,18.7976671 70.8402284,13.3288408 70.1265215,9.85749358 C69.432104,6.39390357 66.7605256,4.90839969 61.4945263,7.17738082 C48.2002893,12.9021948 31.646148,33.1736988 18.2516063,52.4639171 C12.0963668,61.3207007 6.60853975,69.9757971 2.40924289,76.9184915 C-0.0617259988,78.466053 9.94174369,57.7097239 23.8493828,37.3761622 L0,7.15023062 L16.7238878,7.15023062 L31.8660469,26.3434838 C42.9883003,12.0159346 55.3836525,0.188143213 65.6224525,0.0019704022 C69.8005311,-0.069783702 71.8529205,1.82491251 72.6167798,4.58841517 Z"/>
</svg>
